svg/color/diver.svg

<?xml version="1.0" encoding="UTF-8" ?>
<!DOCTYPE svg PUBLIC "-//W3C//DTD SVG 1.1//EN" "http://www.w3.org/Graphics/SVG/1.1/DTD/svg11.dtd">
<svg width="250pt" height="250pt" viewBox="0 0 250 250" version="1.1" xmlns="http://www.w3.org/2000/svg">
<g id="#ffffffff">
<path fill="#ffffff" opacity="1.00" d=" M 0.00 0.00 L 250.00 0.00 L 250.00 250.00 L 0.00 250.00 L 0.00 0.00 M 158.81 67.55 C 159.47 69.00 160.12 70.45 160.77 71.90 C 163.05 70.64 165.31 69.31 167.40 67.74 C 164.54 67.53 161.68 67.53 158.81 67.55 M 93.64 67.69 C 95.47 70.07 97.47 72.30 99.48 74.54 C 107.27 83.35 113.36 93.48 119.01 103.75 C 121.11 101.82 123.19 99.87 125.30 97.95 C 119.70 87.17 112.91 76.92 104.75 67.91 C 101.11 67.16 97.33 67.67 93.64 67.69 M 117.08 67.68 C 122.31 75.58 128.12 83.17 132.00 91.88 C 134.46 90.38 136.78 88.66 139.07 86.90 C 135.57 80.17 131.61 73.66 127.08 67.56 C 123.75 67.57 120.41 67.56 117.08 67.68 M 138.60 67.65 C 141.04 72.28 143.85 76.70 146.28 81.34 C 148.62 79.88 150.91 78.36 153.18 76.79 C 151.72 73.58 149.98 70.52 148.09 67.56 C 144.92 67.57 141.76 67.57 138.60 67.65 M 139.99 135.98 C 127.06 150.53 111.66 162.67 95.42 173.32 C 91.45 175.91 87.24 178.13 83.48 181.04 C 108.64 181.56 133.83 181.08 159.00 181.28 C 178.24 181.60 197.38 172.38 208.98 157.01 C 216.39 147.95 219.35 136.44 223.85 125.87 C 231.17 106.41 239.19 87.21 246.21 67.65 C 222.45 67.46 198.68 67.64 174.91 67.57 C 168.88 92.71 156.81 116.35 139.99 135.98 M 70.71 70.83 C 72.52 72.84 74.48 74.71 76.50 76.52 C 89.11 87.92 99.12 102.06 106.28 117.44 C 108.37 115.36 110.27 113.12 112.15 110.86 C 104.90 94.53 93.41 80.29 80.14 68.44 C 77.00 69.27 73.85 70.03 70.71 70.83 M 52.52 80.42 C 69.24 91.68 82.72 107.62 91.13 125.93 C 92.36 128.66 93.36 131.52 94.94 134.07 C 96.75 131.46 98.83 128.92 99.88 125.89 C 99.60 123.37 98.19 121.18 97.12 118.95 C 89.01 102.69 77.10 88.34 62.64 77.35 C 59.16 74.22 55.66 79.00 52.52 80.42 M 45.09 87.43 C 43.34 89.55 41.61 91.67 40.00 93.88 C 61.67 107.46 78.13 129.90 82.88 155.19 C 83.21 155.31 83.86 155.56 84.18 155.69 C 85.29 150.60 90.51 145.85 87.75 140.48 C 79.96 118.72 64.80 99.58 45.09 87.43 M 34.91 102.39 C 33.93 104.99 31.75 107.62 32.43 110.53 C 37.64 114.63 43.17 118.40 47.56 123.44 C 62.26 138.73 69.70 160.10 69.35 181.16 C 71.31 181.23 73.27 181.27 75.23 181.34 C 79.14 173.54 76.54 164.91 74.98 156.88 C 69.63 134.31 54.71 114.37 34.91 102.39 M 27.70 119.77 C 27.13 122.64 23.33 126.91 26.85 129.02 C 43.23 140.83 53.43 160.95 52.79 181.19 C 55.65 181.24 58.51 181.26 61.37 181.26 C 61.66 156.91 48.92 132.13 27.70 119.77 M 18.10 144.87 C 23.19 149.51 28.21 154.47 31.25 160.75 C 34.70 167.02 36.25 174.12 36.79 181.21 C 39.48 181.24 42.18 181.24 44.87 181.20 C 45.07 163.76 35.30 147.30 21.57 137.01 C 20.20 139.53 19.11 142.19 18.10 144.87 M 11.57 162.89 C 15.91 168.32 19.17 174.49 20.75 181.29 C 23.42 181.26 26.08 181.25 28.75 181.21 C 27.66 170.95 22.36 161.40 14.69 154.57 C 13.58 157.26 11.34 159.90 11.57 162.89 M 6.70 173.36 C 5.87 176.00 4.97 178.62 4.10 181.24 C 6.63 181.25 9.16 181.23 11.69 181.16 C 10.72 178.56 9.59 176.02 8.43 173.49 C 7.99 173.46 7.13 173.40 6.70 173.36 Z" />
</g>
<g id="#03a6dcff">
<path fill="#03a6dc" opacity="1.00" d=" M 158.81 67.55 C 161.68 67.53 164.54 67.53 167.40 67.74 C 165.31 69.31 163.05 70.64 160.77 71.90 C 160.12 70.45 159.47 69.00 158.81 67.55 Z" />
<path fill="#03a6dc" opacity="1.00" d=" M 93.64 67.69 C 97.33 67.67 101.11 67.16 104.75 67.91 C 112.91 76.92 119.70 87.17 125.30 97.95 C 123.19 99.87 121.11 101.82 119.01 103.75 C 113.36 93.48 107.27 83.35 99.48 74.54 C 97.47 72.30 95.47 70.07 93.64 67.69 Z" />
<path fill="#03a6dc" opacity="1.00" d=" M 117.08 67.68 C 120.41 67.56 123.75 67.57 127.08 67.56 C 131.61 73.66 135.57 80.17 139.07 86.90 C 136.78 88.66 134.46 90.38 132.00 91.88 C 128.12 83.17 122.31 75.58 117.08 67.68 Z" />
<path fill="#03a6dc" opacity="1.00" d=" M 138.60 67.65 C 141.76 67.57 144.92 67.57 148.09 67.56 C 149.98 70.52 151.72 73.58 153.18 76.79 C 150.91 78.36 148.62 79.88 146.28 81.34 C 143.85 76.70 141.04 72.28 138.60 67.65 Z" />
<path fill="#03a6dc" opacity="1.00" d=" M 139.99 135.98 C 156.81 116.35 168.88 92.71 174.91 67.57 C 198.68 67.64 222.45 67.46 246.21 67.65 C 239.19 87.21 231.17 106.41 223.85 125.87 C 219.35 136.44 216.39 147.95 208.98 157.01 C 197.38 172.38 178.24 181.60 159.00 181.28 C 133.83 181.08 108.64 181.56 83.48 181.04 C 87.24 178.13 91.45 175.91 95.42 173.32 C 111.66 162.67 127.06 150.53 139.99 135.98 Z" />
<path fill="#03a6dc" opacity="1.00" d=" M 70.71 70.83 C 73.85 70.03 77.00 69.27 80.14 68.44 C 93.41 80.29 104.90 94.53 112.15 110.86 C 110.27 113.12 108.37 115.36 106.28 117.44 C 99.12 102.06 89.11 87.92 76.50 76.52 C 74.48 74.71 72.52 72.84 70.71 70.83 Z" />
<path fill="#03a6dc" opacity="1.00" d=" M 52.52 80.42 C 55.66 79.00 59.16 74.22 62.64 77.35 C 77.10 88.34 89.01 102.69 97.12 118.95 C 98.19 121.18 99.60 123.37 99.88 125.89 C 98.83 128.92 96.75 131.46 94.94 134.07 C 93.36 131.52 92.36 128.66 91.13 125.93 C 82.72 107.62 69.24 91.68 52.52 80.42 Z" />
<path fill="#03a6dc" opacity="1.00" d=" M 45.09 87.43 C 64.80 99.58 79.96 118.72 87.75 140.48 C 90.51 145.85 85.29 150.60 84.18 155.69 C 83.86 155.56 83.21 155.31 82.88 155.19 C 78.13 129.90 61.67 107.46 40.00 93.88 C 41.61 91.67 43.34 89.55 45.09 87.43 Z" />
<path fill="#03a6dc" opacity="1.00" d=" M 34.91 102.39 C 54.71 114.37 69.63 134.31 74.98 156.88 C 76.54 164.91 79.14 173.54 75.23 181.34 C 73.27 181.27 71.31 181.23 69.35 181.16 C 69.70 160.10 62.26 138.73 47.56 123.44 C 43.17 118.40 37.64 114.63 32.43 110.53 C 31.75 107.62 33.93 104.99 34.91 102.39 Z" />
<path fill="#03a6dc" opacity="1.00" d=" M 27.70 119.77 C 48.92 132.13 61.66 156.91 61.37 181.26 C 58.51 181.26 55.65 181.24 52.79 181.19 C 53.43 160.95 43.23 140.83 26.85 129.02 C 23.33 126.91 27.13 122.64 27.70 119.77 Z" />
<path fill="#03a6dc" opacity="1.00" d=" M 18.10 144.87 C 19.11 142.19 20.20 139.53 21.57 137.01 C 35.30 147.30 45.07 163.76 44.87 181.20 C 42.18 181.24 39.48 181.24 36.79 181.21 C 36.25 174.12 34.70 167.02 31.25 160.75 C 28.21 154.47 23.19 149.51 18.10 144.87 Z" />
<path fill="#03a6dc" opacity="1.00" d=" M 11.57 162.89 C 11.34 159.90 13.58 157.26 14.69 154.57 C 22.36 161.40 27.66 170.95 28.75 181.21 C 26.08 181.25 23.42 181.26 20.75 181.29 C 19.17 174.49 15.91 168.32 11.57 162.89 Z" />
<path fill="#03a6dc" opacity="1.00" d=" M 6.70 173.36 C 7.13 173.40 7.99 173.46 8.43 173.49 C 9.59 176.02 10.72 178.56 11.69 181.16 C 9.16 181.23 6.63 181.25 4.10 181.24 C 4.97 178.62 5.87 176.00 6.70 173.36 Z" />
</g>
</svg>

<?xml version="1.0" encoding="utf-8"?>
<!-- Generator: Adobe Illustrator 26.0.3, SVG Export Plug-In . SVG Version: 6.00 Build 0)  -->
<svg version="1.1" id="Layer_1" xmlns="http://www.w3.org/2000/svg" xmlns:xlink="http://www.w3.org/1999/xlink" x="0px" y="0px"
	 viewBox="0 0 250 250" style="enable-background:new 0 0 250 250;" xml:space="preserve">
<style type="text/css">
	.st0{fill:#03A6DC;}
</style>
<g id="_x23_03a6dcff">
	<path class="st0" d="M158.8,67.6c2.9,0,5.7,0,8.6,0.2c-2.1,1.6-4.3,2.9-6.6,4.2C160.1,70.4,159.5,69,158.8,67.6z"/>
	<path class="st0" d="M93.6,67.7c3.7,0,7.5-0.5,11.1,0.2c8.2,9,14.9,19.3,20.6,30c-2.1,1.9-4.2,3.9-6.3,5.8
		c-5.7-10.3-11.7-20.4-19.5-29.2C97.5,72.3,95.5,70.1,93.6,67.7z"/>
	<path class="st0" d="M117.1,67.7c3.3-0.1,6.7-0.1,10-0.1c4.5,6.1,8.5,12.6,12,19.3c-2.3,1.8-4.6,3.5-7.1,5
		C128.1,83.2,122.3,75.6,117.1,67.7z"/>
	<path class="st0" d="M138.6,67.7c3.2-0.1,6.3-0.1,9.5-0.1c1.9,3,3.6,6,5.1,9.2c-2.3,1.6-4.6,3.1-6.9,4.5
		C143.9,76.7,141,72.3,138.6,67.7z"/>
	<path class="st0" d="M140,136c16.8-19.6,28.9-43.3,34.9-68.4c23.8,0.1,47.5-0.1,71.3,0.1c-7,19.6-15,38.8-22.4,58.2
		c-4.5,10.6-7.5,22.1-14.9,31.1c-11.6,15.4-30.7,24.6-50,24.3c-25.2-0.2-50.4,0.3-75.5-0.2c3.8-2.9,8-5.1,11.9-7.7
		C111.7,162.7,127.1,150.5,140,136z"/>
	<path class="st0" d="M70.7,70.8c3.1-0.8,6.3-1.6,9.4-2.4c13.3,11.8,24.8,26.1,32,42.4c-1.9,2.3-3.8,4.5-5.9,6.6
		c-7.2-15.4-17.2-29.5-29.8-40.9C74.5,74.7,72.5,72.8,70.7,70.8z"/>
	<path class="st0" d="M52.5,80.4c3.1-1.4,6.6-6.2,10.1-3.1c14.5,11,26.4,25.3,34.5,41.6c1.1,2.2,2.5,4.4,2.8,6.9
		c-1,3-3.1,5.6-4.9,8.2c-1.6-2.6-2.6-5.4-3.8-8.1C82.7,107.6,69.2,91.7,52.5,80.4z"/>
	<path class="st0" d="M45.1,87.4c19.7,12.2,34.9,31.3,42.7,53c2.8,5.4-2.5,10.1-3.6,15.2c-0.3-0.1-1-0.4-1.3-0.5
		c-4.8-25.3-21.2-47.7-42.9-61.3C41.6,91.7,43.3,89.6,45.1,87.4z"/>
	<path class="st0" d="M34.9,102.4c19.8,12,34.7,31.9,40.1,54.5c1.6,8,4.2,16.7,0.2,24.5c-2-0.1-3.9-0.1-5.9-0.2
		c0.3-21.1-7.1-42.4-21.8-57.7c-4.4-5-9.9-8.8-15.1-12.9C31.8,107.6,33.9,105,34.9,102.4z"/>
	<path class="st0" d="M27.7,119.8c21.2,12.4,34,37.1,33.7,61.5c-2.9,0-5.7,0-8.6-0.1c0.6-20.2-9.6-40.4-25.9-52.2
		C23.3,126.9,27.1,122.6,27.7,119.8z"/>
	<path class="st0" d="M18.1,144.9c1-2.7,2.1-5.3,3.5-7.9c13.7,10.3,23.5,26.8,23.3,44.2c-2.7,0-5.4,0-8.1,0
		c-0.5-7.1-2.1-14.2-5.5-20.5C28.2,154.5,23.2,149.5,18.1,144.9z"/>
	<path class="st0" d="M11.6,162.9c-0.2-3,2-5.6,3.1-8.3c7.7,6.8,13,16.4,14.1,26.6c-2.7,0-5.3,0-8,0.1
		C19.2,174.5,15.9,168.3,11.6,162.9z"/>
	<path class="st0" d="M6.7,173.4c0.4,0,1.3,0.1,1.7,0.1c1.2,2.5,2.3,5.1,3.3,7.7c-2.5,0.1-5.1,0.1-7.6,0.1
		C5,178.6,5.9,176,6.7,173.4z"/>
</g>
</svg>
